X: 4241
M: 6/8
L: 1/8
K: Bb
|: c |\
ded d2B | cdc c2B | AGF FGA | c2B B2B |\
ded d2B | cdc c2B | AGF FGA | c2B B2 :|


